!! Cherubini, Another first species counterpoint example, reprinted in:
!! J.H. Lewis "Counterpoint" Novello (London) -1893, pp. 6-7
**kern	**kern
*M2/2	*M2/2
=1	=1
1C	1c
=2	=2
1AA	1f
=3	=3
1C	1e
=4	=4
1F	1A
=5	=5
1F	1d
=6	=6
1E	1e
=7	=7
1D	1f
=8	=8
1C	1e
=9	=9
1E	1c
=10	=10
1BB	1g
=11	=11
1D	1f#
=12	=12
1D	1a
=13	=13
1E	1g
=14	=14
1BB	1g
=15	=15
1C	1e
=16	=16
1AA	1fn
=17	=17
1BB	1d
=18	=18
1C	1c
==	==
*-	*-
